X: 1
T:Wearmouth Lads
T:Col. Robertson of Strewan's Welcome Home
M:6/8
L:1/8
C:Niel Gow
S:aka Col Robertson of Strewan's Welcome Home
S:Johnny Adams <j.adams:salford.ac.uk> tradtunes 2001-03-16
R:Jig
Z:C.G.P
K:D
   z | D2d F2A | E2c C2E | D2d F2A | DFA gfe | D2d F2A | E2c C2E | agf gfe | dAF D2 :|
|: g | fdg faf | ece gfe | fdg fag | fda bag | fdg faf | ece gfe | agf gfe | dAF D2 :|
